**kern	**kern	**kern
*staff3	*staff2	*staff1
*tb32	*tb32	*tb32
*clefF4	*clefF4	*clefG2
*k[f#c#g#]	*k[f#c#g#]	*k[f#c#g#]
*M2/4	*M2/4	*M2/4
*A:	*A:	*A:
(16ALL	4r	16bLL
16G#	.	16cc#
16F#	.	16dd#
16EJJ	.	16eeJJ
=345	=345	=345
8A)	2r	16cc#LL
.	.	16b#
8r	.	16cc#
.	.	16dd#JJ
16c#LL	.	16eeLL
16B	.	16dd#
16c#	.	16ee
16d#JJ	.	16ff#JJ
=346	=346	=346
16eLL	2r	16gg#LL
16d#	.	16ff#
16e	.	16gg#
16f#JJ	.	16aaJJ
8g#L	.	16bbLL
.	.	16gg#
8G#J	.	16ee
.	.	16bJJ
=347	=347	=347
8A	2r	16cc#LL
.	.	16b#
8r	.	16cc#
.	.	16dd#JJ
16ALL	.	16cc#LL
16c#	.	16ee
16F#	.	16dd#
16AJJ	.	16ff#JJ
=348	=348	=348
16G#LL	2r	16eeLL
16B	.	16gg#
16D#	.	16ff#
16BJJ	.	16aaJJ
16ELL	.	16gg#LL
16G#	.	16ee
16B	.	16b
16eJJ	.	16g#JJ
=349	=349	=349
8A	2r	16cc#LL
.	.	16b#
8r	.	16cc#
.	.	16dd#JJ
16c#LL	.	16eeLL
16B	.	16dd#
16c#	.	16ee
16d#JJ	.	16ff#JJ
=350	=350	=350
16eLL	2r	16gg#LL
16d#	.	16ff#
16e	.	16gg#
16f#JJ	.	16aaJJ
8g#L	.	16bbLL
.	.	16gg#
8G#J	.	16ee
.	.	16bJJ
=351	=351	=351
8A	2r	16cc#LL
.	.	16b#
8r	.	16cc#
.	.	16dd#JJ
16ALL	.	16cc#LL
16c#	.	16ee
16F#	.	16dd#
16AJJ	.	16ff#JJ
=352	=352	=352
8G#	2r	16eeLL
.	.	16dd#
8r	.	16ee
.	.	16ff#JJ
16G#LL	.	16eeLL
16B	.	16gg#
16D#	.	16ff#
16BJJ	.	16aaJJ
=353	=353	=353
16ELL	2r	16gg#LL
16G#	.	16bb
16B	.	16gg#
16eJJ	.	16bbJJ
16BBLL	.	16dd#LL
16D#	.	16ff#
16F#	.	16dd#
16BJJ	.	16ff#JJ
=354	=354	=354
2r;	2r;	2r;
=	=	=
*met(c|)	*met(c|)	*met(c|)
*M2/2	*M2/2	*M2/2
2.EE	2.r	2.E
*-	*-	*-
